X: 10222
T: Divine
R: reel
M: 4/4
K: Aminor
|:A2eA GAcd|edeg edcG|A2eA GAce|dcde dcAG|A2eA GAcd|
edeg edce|d2de dcAd|1 cAGc ADEG:|2 cAGA cdeg||
|:a3b agea|gede g2ed|c2ce dcde|dcAc dege|
a3b agea|gede g2ed|c2ce dcAG|1 A2GA cdeg:|2 Aedc AGEG||

